X:126 
T:Last Night's Fun 2 (reel) 
B:CRE3.193 (SÃÂÃÂÃÂÃÂºgradh na hOiche ArÃÂÃÂÃÂÃÂ©ir)
F:file ID: cre.3/126last_nf
N:This is the Joe Cooley "session" setting. It's usually played
AABB.
R:reel
L:1/8
Q:180
M:C
K:D
dB|AD (3FED A2dB|ADdD EFGB|ADFD A2 (3Bcd|edfe dBB/A/B|
ADFD A3B|ADFD EFGB|ADFD (3ABA Bd|edfe dBBA||
df~f2 af~f2|dff2 egfe|df~f2 af~f2|afed (3Bcd AB|
df~f2 af~f2|dff2 e3f|afbf afeg|f2ed BAdB||

%%%

